img/ok-red.svg

<svg width="34" height="34" viewBox="0 0 34 34" fill="none" xmlns="http://www.w3.org/2000/svg">
<g id="odnoklasnik">
<path id="Vector" d="M15.5231 0.745117H17.5917C17.6844 0.768914 17.7785 0.78702 17.8735 0.799331C21.3383 1.0704 24.4527 2.26582 27.084 4.49674C31.8764 8.5628 33.8425 13.7348 32.848 19.9035C31.6367 27.4311 24.9111 33.1995 17.191 33.4327C13.1415 33.5555 9.49098 32.4134 6.31254 29.9223C3.01882 27.339 0.988605 23.9822 0.250263 19.8809C0.145047 19.2972 0.0837474 18.7063 0.00231934 18.1162V16.0724C0.0498953 15.6838 0.0938114 15.2944 0.146877 14.9068C0.619892 11.5816 1.97672 8.65135 4.25579 6.16382C6.81757 3.37631 9.97405 1.63513 13.7371 0.991792C14.3291 0.890592 14.9274 0.826438 15.5231 0.745117ZM17.7445 21.7576C18.2843 21.6673 18.7628 21.5968 19.234 21.4974C20.685 21.1929 21.987 20.5938 23.0538 19.5529C23.3283 19.2818 23.4975 18.9782 23.4719 18.5888C23.4015 17.5045 22.385 16.8937 21.3822 17.3374C21.2171 17.4145 21.0589 17.5052 20.9092 17.6084C19.1489 18.7713 17.2193 19.131 15.1452 18.7831C14.0702 18.598 13.0483 18.1856 12.1497 17.5741C11.7682 17.3193 11.3602 17.1223 10.8835 17.1883C10.2531 17.2705 9.90086 17.6825 9.70873 18.2409C9.5047 18.8337 9.75356 19.3035 10.1909 19.6866C11.1713 20.5603 12.3666 21.1648 13.6575 21.4396C14.2211 21.5616 14.7902 21.6573 15.3565 21.7649L15.448 21.8679C15.2904 21.9626 15.1413 22.0705 15.0025 22.1904C13.7216 23.4509 12.4352 24.7105 11.168 25.9854C10.5495 26.6089 10.5733 27.4384 11.1845 28.0257C11.7957 28.613 12.5688 28.6139 13.2193 28.0013C13.3108 27.9109 13.4023 27.8206 13.4938 27.7302C14.402 26.8321 15.3065 25.9342 16.2074 25.0367C16.5167 24.7295 16.621 24.7304 16.9284 25.0286C17.0126 25.1108 17.094 25.1966 17.1772 25.2797C18.0976 26.1911 19.0184 27.1025 19.9394 28.0139C20.277 28.3474 20.6713 28.5362 21.1654 28.4314C21.4486 28.3811 21.7119 28.2539 21.9259 28.0639C22.1399 27.874 22.296 27.6289 22.3767 27.3561C22.5597 26.7932 22.3411 26.3423 21.9403 25.9457C20.6698 24.6879 19.4005 23.4286 18.1324 22.1679C18.0126 22.0486 17.8991 21.9194 17.7445 21.7576ZM16.5368 17.2289C19.7656 17.2244 22.3804 14.6646 22.3767 11.5121C22.3767 8.29083 19.7765 5.71475 16.5414 5.72198C15.0089 5.74095 13.5458 6.35546 12.4689 7.43239C11.392 8.50931 10.7882 9.96191 10.7882 11.4755C10.7882 12.989 11.392 14.4416 12.4689 15.5185C13.5458 16.5955 15.0089 17.21 16.5414 17.2289H16.5368Z" fill="#C8102E"/>
<path id="Vector_2" d="M16.5498 14.2886C15.9861 14.2873 15.4354 14.1209 14.9674 13.8104C14.4994 13.4999 14.1353 13.0593 13.921 12.5443C13.7067 12.0293 13.652 11.4631 13.7637 10.9174C13.8754 10.3716 14.1485 9.87091 14.5485 9.47855C14.9485 9.08618 15.4573 8.81983 16.0107 8.71321C16.564 8.60659 17.1369 8.66448 17.6569 8.87957C18.1769 9.09466 18.6206 9.45727 18.9318 9.92151C19.2431 10.3857 19.4078 10.9307 19.4053 11.4875C19.4068 11.8573 19.3338 12.2238 19.1906 12.5655C19.0474 12.9073 18.8368 13.2175 18.5711 13.4781C18.3054 13.7388 17.9898 13.9446 17.6428 14.0838C17.2959 14.2229 16.9243 14.2925 16.5498 14.2886Z" fill="#C8102E"/>
</g>
</svg>

<svg width="34" height="34" fill="none" xmlns="http://www.w3.org/2000/svg"><g fill="#C8102E"><path d="M15.523.745h2.069c.092.024.187.042.282.054 3.464.271 6.579 1.467 9.21 3.698 4.792 4.066 6.759 9.238 5.764 15.407-1.211 7.527-7.937 13.296-15.657 13.529-4.05.123-7.7-1.02-10.878-3.51C3.019 27.338.989 23.982.25 19.88c-.105-.584-.166-1.175-.248-1.765v-2.044c.048-.388.092-.778.145-1.165.473-3.325 1.83-6.256 4.109-8.743C6.818 3.376 9.974 1.635 13.737.992c.592-.101 1.19-.166 1.786-.247zm2.221 21.013c.54-.09 1.019-.161 1.49-.26 1.451-.305 2.753-.904 3.82-1.945.274-.271.444-.575.418-.964-.07-1.084-1.087-1.695-2.09-1.252a3.275 3.275 0 00-.473.271c-1.76 1.163-3.69 1.523-5.764 1.175a7.624 7.624 0 01-2.995-1.209c-.382-.255-.79-.452-1.267-.386-.63.082-.982.495-1.174 1.053-.204.593.045 1.063.482 1.446a7.583 7.583 0 003.466 1.753c.564.122 1.133.217 1.7.325l.091.103a3.213 3.213 0 00-.446.322c-1.28 1.26-2.567 2.52-3.834 3.795-.618.624-.595 1.453.017 2.04.61.588 1.384.589 2.034-.024l.275-.27c.908-.899 1.813-1.797 2.713-2.694.31-.307.414-.307.721-.008.085.082.166.168.25.25l2.761 2.735c.338.333.732.522 1.226.417a1.542 1.542 0 001.212-1.075c.183-.563-.036-1.014-.437-1.41a2710.73 2710.73 0 01-3.808-3.778c-.12-.12-.233-.249-.388-.41zm-1.207-4.53c3.229-.004 5.843-2.563 5.84-5.716 0-3.221-2.6-5.797-5.836-5.79a5.862 5.862 0 00-4.072 1.71 5.717 5.717 0 00-1.68 4.043c0 1.514.603 2.967 1.68 4.043a5.862 5.862 0 004.072 1.71h-.004z"/><path d="M16.55 14.289a2.875 2.875 0 01-1.583-.479 2.821 2.821 0 01-1.046-1.266 2.781 2.781 0 01-.157-1.627 2.803 2.803 0 01.785-1.438 2.882 2.882 0 013.108-.599c.52.215.964.577 1.275 1.042.311.464.476 1.009.473 1.566a2.76 2.76 0 01-.834 1.99 2.829 2.829 0 01-2.021.81z"/></g></svg>
